X:1
T:Christ for Me
T:Christ for Me
T:R. George Halls
T:R. George Halls, 1878
T:Public Domain Courtesy of the Cyber Hymnal™
T:Public Domain Courtesy of the Cyber Hymnal™
C:R. George Halls
Z:Public Domain
Z:Courtesy of the Cyber Hymnal™
%%score ( 1 2 ) ( 3 4 )
L:1/8
Q:1/4=103
M:4/4
K:D
V:1 treble 
V:2 treble 
V:3 bass 
V:4 bass 
V:1
 [Dd]2 [Dc]>[DB] [DA]2 [DB]2 | D2 [CE]2 [DF]4 | .[FA]2 .[FA]2 [GB]4 | .[Gc]2 .[Ec]2 [Fd]4 | %4
w: 1.~Whom have I, Lord, in|Heav’n but Thee?|None but Thee!|None but Thee!|
w: 2.~I en- vy not the|rich their joys,|Christ for me!|Christ for me!|
w: 3.~Tho’ with the poor be|cast my lot,|Christ for me!|Christ for me!|
w: 4.~Tho’ I am now on|hos- tile ground,|Christ for me!|Christ for me!|
w: 5.~And when my life draws|to its close,|Christ for me!|Christ for me!|
 [Dd]2 [Dc][DB] [DA]2 [DB]2 | D2 [CE]2 [DF]4 | .[FA]2 .[FA]2 [GB]4 | .[Gc]2 .[Ec]2 [Fd]4 | %8
w: And this my song thro’|life shall be,|Christ for me!|Christ for me!|
w: I cov- et not earth’s|glit- tering toys,|Christ for me!|Christ for me!|
w: “He know- eth best”— I|mur- mur not,|Christ for me!|Christ for me!|
w: And sin be- set me|all a- round,|Christ for me!|Christ for me!|
w: Safe in His arms I|shall re- pose.|Christ for me!|Christ for me!|
!mf! [FA]2 [DF]>[EG] [FA]2 [Fd]2 | [GB]2 [Gd]2 [FA]4 | [FA]2 [EG][DF] [CE]2 ([DF][EG]) | %11
w: He hath for me the|wine- press trod,|He hath re- deemed me *|
w: Earth can no last- ing|bliss be- stow,|“Fad- ing” is stamped on *|
w: Tho’ “vine and fig- tree”|blight as- sail,|The “la- bor of the *|
w: Let earth her fierc- est|bat- tles wage,|And foes a- gainst my *|
w: When sharp- est pains my|frame per- vade,|And all the powers of *|
 [GB]2 [EA]2 [DF]4 | [DF]2 [DF][EG] [FA]2 [Fd]2 | [GB]2 [Gd]2 [FA]4 | .[FA]2 .[FA]2 [GB]4 | %15
w: “by His blood,”|And re- con- ciled my|soul to God,|Christ for me!|
w: all be- low;|Mine is a joy no|end can know,|Christ for me!|
w: ol- ive fail,”|And death o’er flocks and|herds pre- vail,|Christ for me!|
w: soul en- gage,|Strong in His strength I|scorn their rage,|Christ for me!|
w: na- ture fade,|Still will I sing thro’|death’s cold shade,|Christ for me!|
 .[Gc]2 .[Ec]2 !fermata![Fd]4 |] %16
w: Christ for me!|
w: Christ for me!|
w: Christ for me!|
w: Christ for me!|
w: Christ for me!|
V:2
 x8 | D2 x6 | x8 | x8 | x8 | D2 x6 | x8 | x8 | x8 | x8 | x8 | x8 | x8 | x8 | x8 | x8 |] %16
V:3
 [D,F,]2 [D,A,]>[D,G,] [D,F,]2 G,2 | [F,A,]2 [E,A,]2 [D,A,]4 | .[D,D]2 .[D,D]2 [G,D]4 | %3
 A,2 .[A,,A,]2 [D,A,]4 | [D,F,]2 [D,A,][D,G,] [D,F,]2 G,2 | [F,A,]2 [E,A,]2 [D,A,]4 | %6
 .[D,D]2 .[D,D]2 [G,D]4 | A,2 .[A,,A,]2 [D,A,]4 |!mf! [D,D]2 [D,A,]>[D,A,] [D,D]2 [D,D]2 | %9
 [G,,D]2 [B,,D]2 [D,D]4 | A,2 A,A, [A,,A,]2 [A,,A,]2 | [A,,A,]2 [C,A,]2 [D,A,]4 | %12
 [D,A,]2 [D,A,][D,A,] [D,D]2 [D,D]2 | [G,,D]2 [B,,D]2 [D,D]4 | .[D,D]2 .[D,D]2 [G,D]4 | %15
 A,2 .[A,,A,]2 !fermata![D,A,]4 |] %16
V:4
 x6 G,2 | x8 | x8 | .A,2 x6 | x6 G,2 | x8 | x8 | .A,2 x6 | x8 | x8 | A,2 A,A, x4 | x8 | x8 | x8 | %14
 x8 | .A,2 x6 |] %16

